X: 4
T: The Goodnatured Man
R: hornpipe
M: 4/4
L: 1/8
K: Gmaj
|: d/e/f |g2 bg d2 gd | BcdB G2 AB | c2 ec A2 cA |FGAB cdef |
g2 bg d2 gd | BcdB G2 AB | cedc BGAF | G2 B2 G2 :|
|: Bc |d^cdB G2 =cd | ecec A2 Bc | d^cdB ed=cB | FGAB cAFA |
d^cdB G2 =cd | ecec A2 AB | cedc BGAF | G2 B2 G2 :|


Tune 312	Setting 312

